X:1
T:James Gibb editions
T:I've found a friend, O such a friend - Barnby
%%score ( 1 2 ) ( 3 4 )
L:1/8
Q:1/4=100
M:4/4
K:G
V:1 treble nm="Midi_20"
V:2 treble 
V:3 bass nm="Midi_20"
V:4 bass 
V:1
"^His for ever (87. 87. D.)""^Joseph Barnby\n(1838-96)""^I've found a friend, O such a friend""^James Grindlay Small\n(1817-88)" D2 | %1
 D3 D G2 F2 | A3 G G2 G2 | G2 c2 B2 A2 | d4 B2 B2 | A3 B G2 G2 | F3 G E2 B2 | A2 D2 F2 EF | %8
 E4 !fermata!D2 || D2 | D2 G2 G2 F2 | F3 E E2 E2 | E2 B2 A2 G2 | G4 F2 D2 | G2 A2 B2 G2 | %15
 c2 d2 !fermata!e2 e2 | d2 G2 B2 AB | A4 !fermata!G2 |] %18
V:2
 D2 | D3 D D2 D2 | D3 D D2 G2 | G2 G2 G2 F2 | G4 G2 G2 | G2 F2 E2 E2 | E2 ^D2 E2 ^C2 | %7
 D2 D2 D2 ^C2 | ^C4 D2 || D2 | D2 B,2 C2 D2 | D3 C C2 B,2 | C2 D2 E2 E2 | D4 D2 D2 | D2 D2 D2 G2 | %15
 G2 G2 G2 G2 | G2 G2 G2 F2 | F4 G2 |] %18
V:3
 B,2 | B,3 B, B,2 A,2 | C3 B, B,2 B,2 | C2 G,2 D2 D2 | D4 D2 D2 | C3 D B,2 B,2 | A,3 B, G,2 G,2 | %7
 A,2 B,2 A,2 G,A, | G,4 F,2 || %9
"^1. I've found a Friend; O such a Friend!\nHe loved me ere I knew Him;\nHe drew me with the cords of love,\nAnd thus he bound me to Him;\nAnd round my heart still closely twine\nThose ties which nought can sever,\nFor I am His, and He is mine, \nFor ever and for ever.\n\n2. I've found a Friend; O such a Friend!\nHe bled, He died to save me;\nAnd not alone the gift of life,\nBut His own life He gave me.\nNought that I have mine own I'll call,\nI'll hold it for the Giver;\nMy heart, my strength, my life, my all,\nAre His, and His for ever.\n" F,2 | %10
 G,2 G,2 G,2 G,2 | G,3 G, G,2 ^G,2 | A,2 ^G,2 A,2 C2 | B,4 A,2 F,2 | %14
"^3. I've found a Friend; O such a Friend!\nall power to Him is given,\nTo guard me on my onward course,\nAnd bring me safe to heaven.\nThe eternal glories gleam afar,\nTo nerve my faint endeavour;\nSo now to watch, to work, to war,\nAnd then to rest for ever.\n\n4. I've found a Friend; O such a Friend!\nSo kind, and true, and tender!\nSo wise a Counsellor and Guide,\nSo mighty a Defender!\nFrom Him who loves me now so well\nWhat power my soul shall sever?\nShall life or death, shall earth or hell?\nNo! I am his for ever." G,2 F,2 G,2 B,2 | %15
 C2 B,2 A,2 A,2 | B,2 C2 D2 CD | C4 B,2 |] %18
V:4
 G,2 | G,3 G, G,2 G,2 | G,3 G, G,2 G,2 | E,2 E,2 D,2 C,2 | B,,4 G,,2 B,,2 | D,3 D, E,2 G,,2 | %6
 B,,3 B,, E,2 E,2 | F,2 G,2 A,2 A,,2 | A,,4 !fermata!D,2 || =C,2 | B,,2 G,,2 A,,2 B,,2 | %11
 C,3 C, C,2 E,2 | A,,2 B,,2 C,2 A,,2 | D,4 D,2 C,2 | B,,2 D,2 G,2 =F,2 | %15
 E,2 D,2 !fermata!C,2 ^C,2 | D,2 E,2 D,2 D,2 | D,4 !fermata!G,,2 |] %18

